world_stage/static/flags/rect/som.svg

<svg height="1066.6667" viewBox="0 0 1600 1066.6667" width="1600" xmlns="http://www.w3.org/2000/svg"><path d="m0 0h1200v800h-1200z" fill="#4189dd" transform="matrix(1.3333333 0 0 -1.3333333 0 1066.6667)"/><g fill="#fff"><path d="m0 0-59.514-183.167 91.582-29.757z" transform="matrix(1.3333333 0 0 -1.3333333 800 276.54293)"/><path d="m0 0 59.515-183.167-91.584-29.757z" transform="matrix(1.3333333 0 0 -1.3333333 800 276.54293)"/><path d="m0 0h-192.592v-96.296z" transform="matrix(1.3333333 0 0 -1.3333333 1044.2213 453.98107)"/><path d="m0 0-155.811-113.203-56.601 77.906z" transform="matrix(1.3333333 0 0 -1.3333333 1044.2213 453.98107)"/><path d="m0 0 155.811-113.203 56.602 77.906z" transform="matrix(1.3333333 0 0 -1.3333333 555.778 453.98107)"/><path d="m0 0h192.592v-96.296z" transform="matrix(1.3333333 0 0 -1.3333333 555.778 453.98107)"/><path d="m0 0-59.515 183.167-91.583-29.758z" transform="matrix(1.3333333 0 0 -1.3333333 950.93747 741.08067)"/><path d="m0 0-155.811 113.203 56.602 77.905z" transform="matrix(1.3333333 0 0 -1.3333333 950.93747 741.08067)"/><g transform="matrix(1.3333333 0 0 -1.3333333 649.06253 741.08067)"><path d="m0 0 155.811 113.203-56.602 77.905z"/><path d="m0 0 59.515 183.167 91.583-29.758z"/></g></g></svg>

<?xml version="1.0" encoding="UTF-8" standalone="no"?>
<!-- Created with Inkscape (http://www.inkscape.org/) -->

<svg
   version="1.1"
   id="svg1"
   width="1600"
   height="1066.6667"
   viewBox="0 0 1600 1066.6667"
   sodipodi:docname="so.ai"
   xmlns:inkscape="http://www.inkscape.org/namespaces/inkscape"
   xmlns:sodipodi="http://sodipodi.sourceforge.net/DTD/sodipodi-0.dtd"
   xmlns="http://www.w3.org/2000/svg"
   xmlns:svg="http://www.w3.org/2000/svg">
  <defs
     id="defs1" />
  <sodipodi:namedview
     id="namedview1"
     pagecolor="#ffffff"
     bordercolor="#000000"
     borderopacity="0.25"
     inkscape:showpageshadow="2"
     inkscape:pageopacity="0.0"
     inkscape:pagecheckerboard="0"
     inkscape:deskcolor="#d1d1d1">
    <inkscape:page
       x="0"
       y="0"
       inkscape:label="1"
       id="page1"
       width="1600"
       height="1066.6667"
       margin="0"
       bleed="0" />
  </sodipodi:namedview>
  <g
     id="layer-MC0"
     inkscape:groupmode="layer"
     inkscape:label="Layer 1">
    <path
       id="path1"
       d="M 0,0 H 1200 V 800 H 0 Z"
       style="fill:#4189dd;fill-opacity:1;fill-rule:nonzero;stroke:none"
       transform="matrix(1.3333333,0,0,-1.3333333,0,1066.6667)" />
    <path
       id="path2"
       d="m 0,0 -59.514,-183.167 91.582,-29.757 z"
       style="fill:#ffffff;fill-opacity:1;fill-rule:nonzero;stroke:none"
       transform="matrix(1.3333333,0,0,-1.3333333,800,276.54293)" />
    <path
       id="path3"
       d="m 0,0 59.515,-183.167 -91.584,-29.757 z"
       style="fill:#ffffff;fill-opacity:1;fill-rule:nonzero;stroke:none"
       transform="matrix(1.3333333,0,0,-1.3333333,800,276.54293)" />
    <path
       id="path4"
       d="M 0,0 H -192.592 V -96.296 Z"
       style="fill:#ffffff;fill-opacity:1;fill-rule:nonzero;stroke:none"
       transform="matrix(1.3333333,0,0,-1.3333333,1044.2213,453.98107)" />
    <path
       id="path5"
       d="m 0,0 -155.811,-113.203 -56.601,77.906 z"
       style="fill:#ffffff;fill-opacity:1;fill-rule:nonzero;stroke:none"
       transform="matrix(1.3333333,0,0,-1.3333333,1044.2213,453.98107)" />
    <path
       id="path6"
       d="m 0,0 155.811,-113.203 56.602,77.906 z"
       style="fill:#ffffff;fill-opacity:1;fill-rule:nonzero;stroke:none"
       transform="matrix(1.3333333,0,0,-1.3333333,555.778,453.98107)" />
    <path
       id="path7"
       d="M 0,0 H 192.592 V -96.296 Z"
       style="fill:#ffffff;fill-opacity:1;fill-rule:nonzero;stroke:none"
       transform="matrix(1.3333333,0,0,-1.3333333,555.778,453.98107)" />
    <path
       id="path8"
       d="m 0,0 -59.515,183.167 -91.583,-29.758 z"
       style="fill:#ffffff;fill-opacity:1;fill-rule:nonzero;stroke:none"
       transform="matrix(1.3333333,0,0,-1.3333333,950.93747,741.08067)" />
    <path
       id="path9"
       d="m 0,0 -155.811,113.203 56.602,77.905 z"
       style="fill:#ffffff;fill-opacity:1;fill-rule:nonzero;stroke:none"
       transform="matrix(1.3333333,0,0,-1.3333333,950.93747,741.08067)" />
    <path
       id="path10"
       d="M 0,0 155.811,113.203 99.209,191.108 Z"
       style="fill:#ffffff;fill-opacity:1;fill-rule:nonzero;stroke:none"
       transform="matrix(1.3333333,0,0,-1.3333333,649.06253,741.08067)" />
    <path
       id="path11"
       d="m 0,0 59.515,183.167 91.583,-29.758 z"
       style="fill:#ffffff;fill-opacity:1;fill-rule:nonzero;stroke:none"
       transform="matrix(1.3333333,0,0,-1.3333333,649.06253,741.08067)" />
  </g>
</svg>
